X: 2134
T:Eleno Mome
O:Bulgaria 
M:13/16
L:1/8
N:The photocopy I have this from gives words for this; in a Cyrillic writing. Transcription coming soon oneday maybe.
K:C
"G"G2 A B c (BA/)|B4 c (BA/)|\
G2 A B c (BA/)|B4 c (BA/)|\
"G7"G2 B A G (FE/)|"C"E4 c (BA/)|
"G7"G2 B A G (FE/)|"C"E4 E E z/ |\
"G7"c3/2 c/ B A G (FE/)|"C"E4 c (BA/)|\
"G7"G2 B A G (FE/)|"C"E4 E E z/||
